Hatter-kde/actions/22/view-media-equalizer.svg

<svg xmlns="http://www.w3.org/2000/svg" viewBox="0 0 22 22">
  <defs id="defs3051">
    <style type="text/css" id="current-color-scheme">
      .ColorScheme-Text {
        color:#363636;
      }
      </style>
  </defs>
 <path 
    style="fill:currentColor;fill-opacity:1;stroke:none" 
    d="M 15.5 6 C 14.845303 6 14.297456 6.417435 14.091797 7 L 3 7 L 3 8 L 14.091797 8 C 14.297802 8.58192 14.845763 9 15.5 9 C 16.154237 9 16.702198 8.58192 16.908203 8 L 19 8 L 19 7 L 16.908203 7 C 16.702544 6.417435 16.154697 6 15.5 6 z M 8.5 13 C 7.845299 13 7.2974579 13.41743 7.0917969 14 L 3 14 L 3 15 L 7.0917969 15 C 7.2978029 15.581925 7.84576 16 8.5 16 C 9.15424 16 9.7021971 15.581925 9.9082031 15 L 19 15 L 19 14 L 9.9082031 14 C 9.7025421 13.41743 9.154701 13 8.5 13 z "
	class="ColorScheme-Text"
    />  
</svg>

<?xml version="1.0" encoding="UTF-8"?>
<svg viewBox="0 0 22 22" xmlns="http://www.w3.org/2000/svg">
 <defs id="defs3051">
  <style id="current-color-scheme" type="text/css">.ColorScheme-Text {
        color:#363636;
      }</style>
 </defs>
 <path class="ColorScheme-Text" d="m15.5 6c-0.6547 0-1.2025 0.41744-1.4082 1h-11.092v1h11.092c0.206 0.58192 0.75397 1 1.4082 1s1.2022-0.41808 1.4082-1h2.0918v-1h-2.0918c-0.20566-0.58256-0.75351-1-1.4082-1zm-7 7c-0.6547 0-1.2025 0.41743-1.4082 1h-4.0918v1h4.0918c0.20601 0.58192 0.75396 1 1.4082 1s1.2022-0.41808 1.4082-1h9.0918v-1h-9.0918c-0.20566-0.58257-0.7535-1-1.4082-1z" fill="currentColor"/>
</svg>
